X:245
T:Pollonesse ur Matthias Silvius Svenonis notbok
T:(SmM I:245)
R:Polska
B:Småländsk Musiktradition
S:Matthias Silvius Svenonis
O:Kalmar, Småland
N:1721
M:3/4
L:1/8
K:Ddor
d>d A2 fe|d>d A2fe|d>c df ed|^c2 {/e}A4:|
|:ff/e/ f2 a2|ee/d/ e2g2|d>^c df ed|^c>e d4:|

